www/assets/icons/mode_of_travel.svg

<svg xmlns="http://www.w3.org/2000/svg" width="24" height="24" viewBox="0 0 24 24" fill='currentColor'><path d="M13.56 18.9c-.96 1-2.06 2.03-3.31 3.1-5.33-4.55-8-8.48-8-11.8 0-4.98 3.8-8.2 8-8.2 4 0 7.64 2.92 7.97 7.5h3.53l-4.5 4.5-4.5-4.5h3.47C15.9 6.24 13.38 4 10.25 4c-3.35 0-6 2.57-6 6.2 0 2.34 1.95 5.44 6 9.14q.96-.885 1.77-1.71a2.5 2.5 0 0 1-.27-1.12 2.5 2.5 0 0 1 5 0 2.492 2.492 0 0 1-3.19 2.39"/></svg>

<svg width="24" height="24" viewBox="0 0 24 24" xmlns="http://www.w3.org/2000/svg" fill='currentColor'><path d="M13.56 18.9C12.6 19.9 11.5 20.93 10.25 22C4.92 17.45 2.25 13.52 2.25 10.2C2.25 5.22 6.05 2 10.25 2C14.25 2 17.89 4.92 18.22 9.5H21.75L17.25 14L12.75 9.5H16.22C15.9 6.24 13.38 4 10.25 4C6.9 4 4.25 6.57 4.25 10.2C4.25 12.54 6.2 15.64 10.25 19.34C10.89 18.75 11.48 18.18 12.02 17.63C11.85 17.29 11.75 16.91 11.75 16.51C11.75 15.13 12.87 14.01 14.25 14.01C15.63 14.01 16.75 15.13 16.75 16.51C16.75 17.89 15.63 19 14.25 19C14.01 19 13.78 18.97 13.56 18.9Z"/></svg>
